X:1
T: The Echoes of Killarney
C:
R:Jig
Q:180
K:G
M:6/8
L:1/16
|:G6 G4A2|B4e2 e4e2|d4B2 B2A2B2|d4B2 B2A2B2|
G6 G4A2|B4e2 e4e2|d4B2 A2B2A2|1G6 G2E2D2:|2G6 G4Bd|
|:g4f2 e4d2|B4e2 e4e2|d4B2 B2A2B2|d4B2 B2A2B2|
g4f2 e4d2|B4e2 e4e2|d4B2 A2B2A2|1G6 G2B2d2:|2G6 G6||
